usr/share/icons/biglinux-icons-material/16/actions/align-horizontal-baseline.svg

<svg xmlns="http://www.w3.org/2000/svg" viewBox="0 0 16 16">
  <defs id="defs3051">
    <style type="text/css" id="current-color-scheme">
      .ColorScheme-Text {
        color:#363636;
      }
      </style>
  </defs>
 <path style="fill:currentColor;fill-opacity:1;stroke:none" 
       d="M 5 2 L 5 12.9375 C 4.8932753 12.957229 4.8114453 12.980739 4.6992188 13 L 4.9082031 14 C 4.9399277 13.994555 4.9685215 13.986116 5 13.980469 L 5 14 L 6 14 L 6 13.753906 C 9.7507108 12.739299 11.449219 10.179239 11.449219 8 L 10.341797 8 C 10.341797 8.69264 9.9919381 10.029962 9.3925781 10.544922 C 8.7807381 9.9651118 8.0431244 9.067795 7.8652344 8.015625 L 6.9726562 8 C 6.9726562 9.42386 7.9799481 10.602552 8.7363281 11.326172 C 8.0523326 12.020993 7.2394493 12.425193 6 12.732422 L 6 2 L 5 2 z M 9.3320312 2 C 8.464444 2.0182 7.798691 2.1551085 7.3144531 2.3554688 L 7.5859375 3.2558594 C 7.8179654 3.1829593 8.6964376 2.9296875 9.2109375 2.9296875 L 9.28125 2.9296875 C 9.9975157 2.9569875 10.046875 3.1924961 10.046875 3.7480469 L 10.046875 3.9667969 L 9.6738281 4.0214844 C 7.9386425 4.2491747 7.0117187 4.4403864 7.0117188 5.6425781 C 7.0117188 6.4804693 7.6874489 7 8.6660156 7 C 9.3419282 7 9.7862701 6.744518 10.240234 6.3984375 L 10.380859 6.9082031 L 11.449219 6.9082031 L 11.449219 3.5390625 C 11.449219 2.5099211 10.66372 2 9.453125 2 L 9.3320312 2 z M 10.046875 4.6777344 L 10.046875 5.796875 C 9.6736166 6.0245653 9.392441 6.1894531 8.9082031 6.1894531 C 8.4744095 6.1894531 8.2617188 5.9437367 8.2617188 5.5976562 C 8.2617188 4.9419154 8.8970271 4.832602 9.6738281 4.7324219 L 10.046875 4.6777344 z "
     class="ColorScheme-Text"
     />
</svg>

<svg xmlns="http://www.w3.org/2000/svg" viewBox="0 0 16 16"><path d="M5 2v10.938c-.107.02-.189.043-.3.062l.208 1c.032-.005.06-.014.092-.02V14h1v-.246c3.75-1.015 5.45-3.575 5.45-5.754h-1.108c0 .693-.35 2.03-.95 2.545-.611-.58-1.349-1.477-1.527-2.53L6.973 8c0 1.424 1.007 2.603 1.763 3.326-.684.695-1.497 1.1-2.736 1.406V2H5zm4.332 0c-.868.018-1.533.155-2.018.355l.272.9c.232-.072 1.11-.325 1.625-.325h.07c.717.027.766.262.766.818v.219l-.373.054c-1.735.228-2.662.42-2.662 1.622C7.012 6.48 7.687 7 8.666 7c.676 0 1.12-.255 1.574-.602l.14.51h1.07V3.54C11.45 2.51 10.663 2 9.452 2h-.121zm.715 2.678v1.119c-.373.228-.655.392-1.139.392-.434 0-.646-.245-.646-.591 0-.656.635-.765 1.412-.866l.373-.054z" style="fill:currentColor;fill-opacity:1;stroke:none;color:#dedede"/></svg>
